assets/images/brands/uideck.svg

<svg fill="none" height="52" viewBox="0 0 200 52" width="200" xmlns="http://www.w3.org/2000/svg" xmlns:xlink="http://www.w3.org/1999/xlink"><linearGradient id="a" gradientUnits="userSpaceOnUse" x1="38.8079" x2="8.58038" y1="46.5383" y2="-5.02959"><stop offset="0" stop-color="#2535c5"/><stop offset=".169697" stop-color="#36409b"/><stop offset=".575758" stop-color="#475bc6"/><stop offset="1" stop-color="#7075e4"/></linearGradient><linearGradient id="b" gradientUnits="userSpaceOnUse" x1="60.5417" x2="60.5417" y1="0" y2="51.0085"><stop offset="0" stop-color="#375ad8"/><stop offset=".472727" stop-color="#3c56dd"/><stop offset="1" stop-color="#2a1a8f"/></linearGradient><linearGradient id="c" gradientUnits="userSpaceOnUse" x1="30.6663" x2="30.6663" y1="0" y2="51.518"><stop offset="0" stop-color="#233593"/><stop offset=".472727" stop-color="#4957d7"/><stop offset=".890909" stop-color="#5465ff"/><stop offset="1" stop-color="#6a67ff"/></linearGradient><linearGradient id="d" gradientUnits="userSpaceOnUse" x1="4.28592" x2="11.4261" y1="8.72853" y2="-.208004"><stop offset="0" stop-color="#3a4a9c"/><stop offset=".327273" stop-color="#475bc6"/><stop offset="1" stop-color="#7090e4"/></linearGradient><linearGradient id="e" gradientUnits="userSpaceOnUse" x1="60.8992" x2="53.9964" y1="42.9276" y2="51.1328"><stop offset="0" stop-color="#2d3792"/><stop offset=".193939" stop-color="#3f2bb8"/><stop offset="1" stop-color="#3c38ff"/></linearGradient><path d="m184.095 31.7551 15.808-19.0639h-7.76l-14.174 17.0891v-.1095l-6.422 7.7869-1.398 1.6943c-.04.0675-.078.1368-.12.2043l-2.408 2.903c-.446.4055-.918.7822-1.416 1.1234-2.112 1.447-4.637 2.2881-7.382 2.2889v.0992c-1.827-.0032-3.552-.3772-5.126-1.0523-2.366-1.0166-4.389-2.7209-5.814-4.8626-1.424-2.1452-2.254-4.7088-2.255-7.497 0-1.8612.369-3.6174 1.036-5.2197 1.001-2.4044 2.68-4.4579 4.791-5.9052 2.112-1.4463 4.637-2.2869 7.384-2.2881 2.902.0012 5.562.9408 7.744 2.5433l3.482-4.88c-3.148-2.3207-7.042-3.6925-11.226-3.6917-2.636 0-5.162.5444-7.455 1.5294-3.44 1.4774-6.357 3.939-8.423 7.0398-2.064 3.0989-3.272 6.8561-3.27 10.8722 0 .0663.005.1338.005.2008h-.104c0 1.8592-.369 3.6167-1.037 5.219-1.002 2.4026-2.679 4.4574-4.788 5.904-2.113 1.4462-4.639 2.2876-7.384 2.2892-1.834-.0011-3.563-.3755-5.142-1.0538-2.367-1.015-4.39-2.7198-5.816-4.8622-.666-1.0042-1.202-2.1024-1.584-3.2711-.245-.1221-.511-.2595-.792-.4116-1.353-.7357-3.049-1.8093-4.439-3.2184-.583-.5919-1.105-1.1765-1.574-1.7423.031.3772.049.7595.049 1.1472 0 1.8592-.368 3.6167-1.037 5.219-1 2.4026-2.679 4.4574-4.789 5.904-2.1122 1.4462-4.6385 2.2876-7.3837 2.2892-1.8329-.0011-3.5628-.3755-5.142-1.0538-2.3669-1.015-4.3894-2.7198-5.8142-4.8622-1.4254-2.1444-2.254-4.7096-2.2546-7.4962 0-1.8602.3696-3.6178 1.0368-5.2208 1-2.4029 2.6794-4.4564 4.7891-5.9037 2.1125-1.4463 4.6376-2.2881 7.3849-2.2887 1.8315 0 3.5619.3758 5.141 1.053 2.3667 1.016 4.3897 2.7202 5.8147 4.8622.032.0488.062.098.094.1475l.009-.0035v.0043l.009.0221c.001.0034.004.0091.005.0139.055.0855.106.1747.159.2607.133.3041.399.8806.818 1.6328.042.0752.087.1544.133.2337.034.0835.072.1649.105.2489.389.6444.885 1.3851 1.498 2.1792.034.0438.064.0863.098.1295.536.6996 1.166 1.4293 1.887 2.1447.005.0053.009.0094.013.0134.006.006.012.0106.017.0166.114.1134.23.2248.349.3365.047.0429.093.0861.14.1287.756.6969 1.603 1.3708 2.564 1.9762 1.079.681 2.296 1.2723 3.642 1.6975 1.347.4264 2.824.6847 4.403.7092h.002c.136.0023.269.0037.402.0037 2.544.0006 4.826-.4032 6.829-1.1224 1.503-.5384 2.846-1.2516 4.024-2.0778 1.768-1.2416 3.162-2.7299 4.249-4.255 1.087-1.5281 1.869-3.0941 2.44-4.5394.436-1.1063.66-2.2054.66-3.2578 0-.6056-.073-1.1902-.211-1.735-.238-.954-.665-1.769-1.14-2.4102-.717-.9662-1.52-1.5682-2.144-1.9589-.63-.3887-1.1-.5684-1.24-.6197l-.01.034c-2.502-1.214-5.306-1.8967-8.252-1.8962-2.636-.0005-5.163.5431-7.455 1.5286-2.244.9645-4.264 2.3481-5.972 4.0541v-18.6693734h-5.936v16.2618734c.363.3526.739.735 1.131 1.1524 1.501 1.6028 2.474 3.1516 3.328 4.5762.855 1.4285 1.594 2.723 2.632 3.9046.157.181.325.359.499.5358 1.02-2.0258 2.539-3.7595 4.388-5.0279 2.111-1.4463 4.638-2.2881 7.385-2.2887 2.408.0006 4.644.6475 6.586 1.7832l.023-.0417c.127.1008.243.2175.308.3177.048.0708.079.132.101.2026.022.0704.042.1526.042.2966 0 .1932-.038.5135-.236 1.0188-.373.9467-.866 1.9454-1.497 2.8936-.473.7112-1.024 1.3951-1.659 2.018-.957.935-2.099 1.7378-3.532 2.3264-1.432.5875-3.167.9667-5.341.9672-.102 0-.203-.0005-.305-.002h-.001c-.898-.0154-1.707-.1434-2.458-.3546-1.31-.3698-2.448-.999-3.448-1.7722-.349-.2698-.679-.5596-.991-.859 0-.0015 0-.0052.002-.008-.15-.1403-.293-.2823-.434-.4238-.82-.8593-1.491-1.7684-1.983-2.5513-.376-.5959-.762-1.0924-.937-1.4456-.087-.1775-.261-.4527-.261-.4527-.888-1.487-1.811-2.9982-3.286-4.5744-.019-.0209-.039-.0381-.056-.0592v.0011c-.758-.7263-1.571-1.3931-2.438-1.9873-3.052-2.095-6.7519-3.3226-10.7067-3.321-2.6361-.0005-5.1614.5431-7.4548 1.5286-3.44 1.4782-6.3577 3.9396-8.4218 7.04-2.0638 3.0988-3.2728 6.8554-3.2716 10.8722-.0012 2.6754.5352 5.2404 1.5056 7.5672 1.4554 3.4932 3.8796 6.4548 6.9342 8.5506 3.0523 2.0964 6.7522 3.3232 10.7084 3.3225 2.6351.0003 5.1616-.5443 7.4537-1.5299 3.44-1.4777 6.357-3.9386 8.422-7.0392.13-.1957.256-.3926.379-.5934 1.426 2.3209 3.317 4.3114 5.543 5.84 3.053 2.0964 6.753 3.3232 10.71 3.3225 2.634.0003 5.16-.5443 7.453-1.5299 3.437-1.4777 6.357-3.9386 8.42-7.0392.144-.2148.283-.4332.416-.6554 1.417 2.2609 3.275 4.2034 5.46 5.7012 3.052 2.0957 6.751 3.3225 10.707 3.3221 2.633.0004 5.162-.5437 7.453-1.5291 2.144-.9201 4.083-2.2226 5.74-3.8234v5.4274h5.937v-12.7342l2.228-2.6848 12.19 15.419h7.613zm-6.126-31.7228734h-5.937v32.2332734c0 .8744-.084 1.725-.243 2.5496l6.18-7.4916z" fill="#252f3f"/><path d="m34.0189 13.86v15.7973c0 7.3592-4.4501 11.8042-11.1961 11.8042-6.7467 0-11.4829-4.445-11.4829-11.8042v-29.6573h-11.3399v29.6573c0 13.4804 8.89879 21.8604 22.8228 21.8604 13.8515 0 22.5361-8.38 22.5361-21.8604v-29.6573h-.1992c-5.9802 1.94948-10.4416 7.32973-11.1408 13.86z" fill="url(#a)"/><path d="m55.0664 0h-.1948v51.0084h11.3401v-37.1381c-.1071-5.66845-5.1616-11.91957-11.1453-13.8703z" fill="url(#b)"/><path d="m34.0188 13.86v15.7973c0 .0095-.0007.019-.0007.0295.0027.1571.0111.3129.0111.4712 0 10.6391-7.8921 19.4019-18.0551 20.5959 2.1151.5002 4.4028.7638 6.8486.7638 13.8514 0 22.5361-8.38 22.5361-21.8604v-29.6573h-.1992c-5.9803 1.94948-10.4416 7.32973-11.1408 13.86z" fill="url(#c)"/><path d="m11.3399 13.8856v-13.8856h-11.3399v.00225067c6.02904 1.95298933 10.5469 7.33198933 11.3399 13.88334933z" fill="url(#d)"/><path d="m54.8716 35.8926v15.1157h11.2017c-6.2467-2.238-10.8021-8.1097-11.2017-15.1157z" fill="url(#e)"/></svg>

<svg width="200" height="52" viewBox="0 0 200 52" fill="none" xmlns="http://www.w3.org/2000/svg">
<path d="M184.095 31.7551L199.903 12.6912H192.143L177.969 29.7803V29.6708L171.547 37.4577L170.149 39.152C170.109 39.2195 170.071 39.2888 170.029 39.3563L167.621 42.2593C167.175 42.6648 166.703 43.0415 166.205 43.3827C164.093 44.8297 161.568 45.6708 158.823 45.6716V45.7708C156.996 45.7676 155.271 45.3936 153.697 44.7185C151.331 43.7019 149.308 41.9976 147.883 39.8559C146.459 37.7107 145.629 35.1471 145.628 32.3589C145.628 30.4977 145.997 28.7415 146.664 27.1392C147.665 24.7348 149.344 22.6813 151.455 21.234C153.567 19.7877 156.092 18.9471 158.839 18.9459C161.741 18.9471 164.401 19.8867 166.583 21.4892L170.065 16.6092C166.917 14.2885 163.023 12.9167 158.839 12.9175C156.203 12.9175 153.677 13.4619 151.384 14.4469C147.944 15.9243 145.027 18.3859 142.961 21.4867C140.897 24.5856 139.689 28.3428 139.691 32.3589C139.691 32.4252 139.696 32.4927 139.696 32.5597H139.592C139.592 34.4189 139.223 36.1764 138.555 37.7787C137.553 40.1813 135.876 42.2361 133.767 43.6827C131.654 45.1289 129.128 45.9703 126.383 45.9719C124.549 45.9708 122.82 45.5964 121.241 44.9181C118.874 43.9031 116.851 42.1983 115.425 40.0559C114.759 39.0517 114.223 37.9535 113.841 36.7848C113.596 36.6627 113.33 36.5253 113.049 36.3732C111.696 35.6375 110 34.5639 108.61 33.1548C108.027 32.5629 107.505 31.9783 107.036 31.4125C107.067 31.7897 107.085 32.172 107.085 32.5597C107.085 34.4189 106.717 36.1764 106.048 37.7787C105.048 40.1813 103.369 42.2361 101.259 43.6827C99.1468 45.1289 96.6205 45.9703 93.8753 45.9719C92.0424 45.9708 90.3125 45.5964 88.7333 44.9181C86.3664 43.9031 84.3439 42.1983 82.9191 40.0559C81.4937 37.9115 80.6651 35.3463 80.6645 32.5597C80.6645 30.6995 81.0341 28.9419 81.7013 27.3389C82.7013 24.936 84.3807 22.8825 86.4904 21.4352C88.6029 19.9889 91.128 19.1471 93.8753 19.1465C95.7068 19.1465 97.4372 19.5223 99.0163 20.1995C101.383 21.2155 103.406 22.9197 104.831 25.0617C104.863 25.1105 104.893 25.1597 104.925 25.2092L104.934 25.2057L104.934 25.21L104.943 25.2321C104.944 25.2355 104.947 25.2412 104.948 25.246C105.003 25.3315 105.054 25.4207 105.107 25.5067C105.24 25.8108 105.506 26.3873 105.925 27.1395C105.967 27.2147 106.012 27.2939 106.058 27.3732C106.092 27.4567 106.13 27.5381 106.163 27.6221C106.552 28.2665 107.048 29.0072 107.661 29.8013C107.695 29.8451 107.725 29.8876 107.759 29.9308C108.295 30.6304 108.925 31.3601 109.646 32.0755C109.651 32.0808 109.655 32.0849 109.659 32.0889C109.665 32.0949 109.671 32.0995 109.676 32.1055C109.79 32.2189 109.906 32.3303 110.025 32.442C110.072 32.4849 110.118 32.5281 110.165 32.5707C110.921 33.2676 111.768 33.9415 112.729 34.5469C113.808 35.2279 115.025 35.8192 116.371 36.2444C117.718 36.6708 119.195 36.9291 120.774 36.9536H120.776C120.912 36.9559 121.045 36.9573 121.178 36.9573C123.722 36.9579 126.004 36.5541 128.007 35.8349C129.51 35.2965 130.853 34.5833 132.031 33.7571C133.799 32.5155 135.193 31.0272 136.28 29.5021C137.367 27.974 138.149 26.408 138.72 24.9627C139.156 23.8564 139.38 22.7573 139.38 21.7049C139.38 21.0993 139.307 20.5147 139.169 19.9699C138.931 19.0159 138.504 18.2009 138.029 17.5597C137.312 16.5935 136.509 15.9915 135.885 15.6008C135.255 15.2121 134.785 15.0324 134.645 14.9811L134.635 15.0151C132.133 13.8011 129.329 13.1184 126.383 13.1189C123.747 13.1184 121.22 13.662 118.928 14.6475C116.684 15.612 114.664 16.9956 112.956 18.7016V0.0322266H107.02V16.2941C107.383 16.6467 107.759 17.0291 108.151 17.4465C109.652 19.0493 110.625 20.5981 111.479 22.0227C112.334 23.4512 113.073 24.7457 114.111 25.9273C114.268 26.1083 114.436 26.2863 114.61 26.4631C115.63 24.4373 117.149 22.7036 118.998 21.4352C121.109 19.9889 123.636 19.1471 126.383 19.1465C128.791 19.1471 131.027 19.794 132.969 20.9297L132.992 20.888C133.119 20.9888 133.235 21.1055 133.3 21.2057C133.348 21.2765 133.379 21.3377 133.401 21.4083C133.423 21.4787 133.443 21.5609 133.443 21.7049C133.443 21.8981 133.405 22.2184 133.207 22.7237C132.834 23.6704 132.341 24.6691 131.71 25.6173C131.237 26.3285 130.686 27.0124 130.051 27.6353C129.094 28.5703 127.952 29.3731 126.519 29.9617C125.087 30.5492 123.352 30.9284 121.178 30.9289C121.076 30.9289 120.975 30.9284 120.873 30.9269H120.872C119.974 30.9115 119.165 30.7835 118.414 30.5723C117.104 30.2025 115.966 29.5733 114.966 28.8001C114.617 28.5303 114.287 28.2405 113.975 27.9411C113.975 27.9396 113.975 27.9359 113.977 27.9331C113.827 27.7928 113.684 27.6508 113.543 27.5093C112.723 26.65 112.052 25.7409 111.56 24.958C111.184 24.3621 110.798 23.8656 110.623 23.5124C110.536 23.3349 110.362 23.0597 110.362 23.0597C109.474 21.5727 108.551 20.0615 107.076 18.4853C107.057 18.4644 107.037 18.4472 107.02 18.4261V18.4272C106.262 17.7009 105.449 17.0341 104.582 16.4399C101.53 14.3449 97.8301 13.1173 93.8753 13.1189C91.2392 13.1184 88.7139 13.662 86.4205 14.6475C82.9805 16.1257 80.0628 18.5871 77.9987 21.6875C75.9349 24.7863 74.7259 28.5429 74.7271 32.5597C74.7259 35.2351 75.2623 37.8001 76.2327 40.1269C77.6881 43.6201 80.1123 46.5817 83.1669 48.6775C86.2192 50.7739 89.9191 52.0007 93.8753 52C96.5104 52.0003 99.0369 51.4557 101.329 50.4701C104.769 48.9924 107.686 46.5315 109.751 43.4309C109.881 43.2352 110.007 43.0383 110.13 42.8375C111.556 45.1584 113.447 47.1489 115.673 48.6775C118.726 50.7739 122.426 52.0007 126.383 52C129.017 52.0003 131.543 51.4557 133.836 50.4701C137.273 48.9924 140.193 46.5315 142.256 43.4309C142.4 43.2161 142.539 42.9977 142.672 42.7755C144.089 45.0364 145.947 46.9789 148.132 48.4767C151.184 50.5724 154.883 51.7992 158.839 51.7988C161.472 51.7992 164.001 51.2551 166.292 50.2697C168.436 49.3496 170.375 48.0471 172.032 46.4463V51.8737H177.969V39.1395L180.197 36.4547L192.387 51.8737H200L184.095 31.7551ZM177.969 0.0322266H172.032V32.2655C172.032 33.1399 171.948 33.9905 171.789 34.8151L177.969 27.3235V0.0322266Z" fill="#252F3F"/>
<path d="M34.0189 13.86V29.6573C34.0189 37.0165 29.5688 41.4615 22.8228 41.4615C16.0761 41.4615 11.3399 37.0165 11.3399 29.6573V0H0V29.6573C0 43.1377 8.89879 51.5177 22.8228 51.5177C36.6743 51.5177 45.3589 43.1377 45.3589 29.6573V0H45.1597C39.1795 1.94948 34.7181 7.32973 34.0189 13.86Z" fill="url(#paint0_linear)"/>
<path d="M55.0664 0H54.8716V51.0084H66.2117V13.8703C66.1046 8.20185 61.0501 1.95073 55.0664 0Z" fill="url(#paint1_linear)"/>
<path d="M34.0188 13.86V29.6573C34.0188 29.6668 34.0181 29.6763 34.0181 29.6868C34.0208 29.8439 34.0292 29.9997 34.0292 30.158C34.0292 40.7971 26.1371 49.5599 15.9741 50.7539C18.0892 51.2541 20.3769 51.5177 22.8227 51.5177C36.6741 51.5177 45.3588 43.1377 45.3588 29.6573V0H45.1596C39.1793 1.94948 34.718 7.32973 34.0188 13.86Z" fill="url(#paint2_linear)"/>
<path d="M11.3399 13.8856V0H0V0.00225067C6.02904 1.95524 10.5469 7.33424 11.3399 13.8856Z" fill="url(#paint3_linear)"/>
<path d="M54.8716 35.8926V51.0083H66.0733C59.8266 48.7703 55.2712 42.8986 54.8716 35.8926Z" fill="url(#paint4_linear)"/>
<defs>
<linearGradient id="paint0_linear" x1="38.8079" y1="46.5383" x2="8.58038" y2="-5.02959" gradientUnits="userSpaceOnUse">
<stop stop-color="#2535C5"/>
<stop offset="0.169697" stop-color="#36409B"/>
<stop offset="0.575758" stop-color="#475BC6"/>
<stop offset="1" stop-color="#7075E4"/>
</linearGradient>
<linearGradient id="paint1_linear" x1="60.5417" y1="0" x2="60.5417" y2="51.0085" gradientUnits="userSpaceOnUse">
<stop stop-color="#375AD8"/>
<stop offset="0.472727" stop-color="#3C56DD"/>
<stop offset="1" stop-color="#2A1A8F"/>
</linearGradient>
<linearGradient id="paint2_linear" x1="30.6663" y1="0" x2="30.6663" y2="51.518" gradientUnits="userSpaceOnUse">
<stop stop-color="#233593"/>
<stop offset="0.472727" stop-color="#4957D7"/>
<stop offset="0.890909" stop-color="#5465FF"/>
<stop offset="1" stop-color="#6A67FF"/>
</linearGradient>
<linearGradient id="paint3_linear" x1="4.28592" y1="8.72853" x2="11.4261" y2="-0.208004" gradientUnits="userSpaceOnUse">
<stop stop-color="#3A4A9C"/>
<stop offset="0.327273" stop-color="#475BC6"/>
<stop offset="1" stop-color="#7090E4"/>
</linearGradient>
<linearGradient id="paint4_linear" x1="60.8992" y1="42.9276" x2="53.9964" y2="51.1328" gradientUnits="userSpaceOnUse">
<stop stop-color="#2D3792"/>
<stop offset="0.193939" stop-color="#3F2BB8"/>
<stop offset="1" stop-color="#3C38FF"/>
</linearGradient>
</defs>
</svg>
